X: 25797
T: Mason's Apron, The
R: reel
M: 4/4
K: Amajor
ed|cAAA ABAF|EFAB c2 BA|dBBB BcBA|Bcde fefg|
aAAA ABAF|EFAB c2 BA|dcde fgaf|edcB A2||
e2|cAeA fAeA|ceag fedc|dBfB gBaB|dfba gfed|
cAeA fAeF|EFAB c2 BA|dcde fgaf|edcB A2||

